public/assets/img/vector3.svg

<svg width="67" height="60" viewBox="0 0 67 60" fill="none" xmlns="http://www.w3.org/2000/svg">
<path d="M61.5968 0H5.40323C3.97073 0.00170128 2.59739 0.566659 1.58446 1.57095C0.571534 2.57524 0.00171591 3.93686 0 5.35714V54.6429C0.00171591 56.0631 0.571534 57.4248 1.58446 58.429C2.59739 59.4333 3.97073 59.9983 5.40323 60H61.5968C63.0293 59.9983 64.4026 59.4333 65.4155 58.429C66.4285 57.4248 66.9983 56.0631 67 54.6429V5.35714C66.9983 3.93686 66.4285 2.57524 65.4155 1.57095C64.4026 0.566659 63.0293 0.00170128 61.5968 0ZM5.40323 2.14286H61.5968C62.4566 2.14286 63.2812 2.4815 63.8892 3.0843C64.4972 3.6871 64.8387 4.50466 64.8387 5.35714V12.8571H2.16129V5.35714C2.16129 4.50466 2.50285 3.6871 3.11083 3.0843C3.71881 2.4815 4.54341 2.14286 5.40323 2.14286ZM2.16129 17.1429V15H10.8065V17.1429H2.16129ZM12.9677 15H21.6129V17.1429H12.9677V15ZM23.7742 15H32.4194V17.1429H23.7742V15ZM34.5806 15H43.2258V16.0714C43.2258 16.3556 43.112 16.6281 42.9093 16.829C42.7066 17.03 42.4318 17.1429 42.1452 17.1429H34.5806V15ZM61.5968 57.8571H5.40323C4.54341 57.8571 3.71881 57.5185 3.11083 56.9157C2.50285 56.3129 2.16129 55.4953 2.16129 54.6429V19.2857H42.1452C43.005 19.2857 43.8296 18.9471 44.4376 18.3443C45.0455 17.7415 45.3871 16.9239 45.3871 16.0714V15H64.8387V54.6429C64.8387 55.4953 64.4972 56.3129 63.8892 56.9157C63.2812 57.5185 62.4566 57.8571 61.5968 57.8571Z" fill="#90A1AE"/>
<path d="M50.7903 10.7143C51.4315 10.7143 52.0583 10.5258 52.5914 10.1726C53.1246 9.81939 53.5401 9.31739 53.7855 8.73005C54.0309 8.14272 54.0951 7.49643 53.97 6.87292C53.8449 6.24941 53.5361 5.67668 53.0827 5.22716C52.6293 4.77763 52.0517 4.4715 51.4228 4.34748C50.7939 4.22345 50.1421 4.28711 49.5497 4.53039C48.9573 4.77367 48.451 5.18565 48.0948 5.71424C47.7385 6.24282 47.5484 6.86427 47.5484 7.5C47.5484 8.35248 47.8899 9.17005 48.4979 9.77284C49.1059 10.3756 49.9305 10.7143 50.7903 10.7143ZM50.7903 6.42857C51.0041 6.42857 51.213 6.49141 51.3907 6.60914C51.5684 6.72687 51.7069 6.8942 51.7887 7.08998C51.8705 7.28576 51.8919 7.50119 51.8502 7.70902C51.8085 7.91686 51.7056 8.10777 51.5545 8.25761C51.4033 8.40746 51.2108 8.5095 51.0011 8.55084C50.7915 8.59218 50.5742 8.57096 50.3768 8.48987C50.1793 8.40878 50.0105 8.27145 49.8918 8.09525C49.7731 7.91906 49.7097 7.71191 49.7097 7.5C49.7097 7.21584 49.8235 6.94332 50.0262 6.74239C50.2289 6.54145 50.5037 6.42857 50.7903 6.42857Z" fill="#90A1AE"/>
<path d="M59.4355 10.7143C60.0767 10.7143 60.7035 10.5258 61.2366 10.1726C61.7697 9.81939 62.1853 9.31739 62.4306 8.73005C62.676 8.14272 62.7402 7.49643 62.6151 6.87292C62.49 6.24941 62.1813 5.67668 61.7279 5.22716C61.2745 4.77763 60.6968 4.4715 60.068 4.34748C59.4391 4.22345 58.7872 4.28711 58.1949 4.53039C57.6025 4.77367 57.0961 5.18565 56.7399 5.71424C56.3837 6.24282 56.1936 6.86427 56.1936 7.5C56.1936 8.35248 56.5351 9.17005 57.1431 9.77284C57.7511 10.3756 58.5757 10.7143 59.4355 10.7143ZM59.4355 6.42857C59.6492 6.42857 59.8581 6.49141 60.0359 6.60914C60.2136 6.72687 60.3521 6.8942 60.4339 7.08998C60.5157 7.28576 60.5371 7.50119 60.4954 7.70902C60.4537 7.91686 60.3507 8.10777 60.1996 8.25761C60.0485 8.40746 59.8559 8.5095 59.6463 8.55084C59.4367 8.59218 59.2194 8.57096 59.0219 8.48987C58.8245 8.40878 58.6557 8.27145 58.537 8.09525C58.4182 7.91906 58.3548 7.71191 58.3548 7.5C58.3548 7.21584 58.4687 6.94332 58.6714 6.74239C58.874 6.54145 59.1489 6.42857 59.4355 6.42857Z" fill="#90A1AE"/>
<path d="M61.5968 21.4286H5.40323C5.11662 21.4286 4.84175 21.5415 4.63909 21.7424C4.43643 21.9433 4.32258 22.2158 4.32258 22.5V54.6429C4.32258 54.927 4.43643 55.1995 4.63909 55.4005C4.84175 55.6014 5.11662 55.7143 5.40323 55.7143H61.5968C61.8834 55.7143 62.1582 55.6014 62.3609 55.4005C62.5636 55.1995 62.6774 54.927 62.6774 54.6429V22.5C62.6774 22.2158 62.5636 21.9433 62.3609 21.7424C62.1582 21.5415 61.8834 21.4286 61.5968 21.4286ZM60.5161 53.5714H6.48387V23.5714H60.5161V53.5714Z" fill="#90A1AE"/>
<path d="M9.72581 51.4286H58.3548V49.2857H10.8065V25.7143H8.64516V50.3571C8.64516 50.6413 8.75902 50.9138 8.96168 51.1148C9.16434 51.3157 9.4392 51.4286 9.72581 51.4286Z" fill="#90A1AE"/>
<path d="M17.2903 39.6429H18.371V41.7857H20.5323V39.6429H21.6129C21.8995 39.6429 22.1744 39.53 22.377 39.329C22.5797 39.1281 22.6936 38.8556 22.6936 38.5714V32.1429C22.6936 31.8587 22.5797 31.5862 22.377 31.3852C22.1744 31.1843 21.8995 31.0714 21.6129 31.0714H20.5323V28.9286H18.371V31.0714H17.2903C17.0037 31.0714 16.7289 31.1843 16.5262 31.3852C16.3235 31.5862 16.2097 31.8587 16.2097 32.1429V38.5714C16.2097 38.8556 16.3235 39.1281 16.5262 39.329C16.7289 39.53 17.0037 39.6429 17.2903 39.6429ZM18.371 33.2143H20.5323V37.5H18.371V33.2143Z" fill="#90A1AE"/>
<path d="M28.0968 42.8571H29.1774V47.1429H31.3387V42.8571H32.4194C32.706 42.8571 32.9808 42.7443 33.1835 42.5433C33.3862 42.3424 33.5 42.0699 33.5 41.7857V35.3571C33.5 35.073 33.3862 34.8005 33.1835 34.5995C32.9808 34.3986 32.706 34.2857 32.4194 34.2857H31.3387V32.1429H29.1774V34.2857H28.0968C27.8102 34.2857 27.5353 34.3986 27.3326 34.5995C27.13 34.8005 27.0161 35.073 27.0161 35.3571V41.7857C27.0161 42.0699 27.13 42.3424 27.3326 42.5433C27.5353 42.7443 27.8102 42.8571 28.0968 42.8571ZM29.1774 36.4286H31.3387V40.7143H29.1774V36.4286Z" fill="#90A1AE"/>
<path d="M38.9032 39.6429H39.9839V41.7857H42.1452V39.6429H43.2258C43.5124 39.6429 43.7873 39.53 43.9899 39.329C44.1926 39.1281 44.3065 38.8556 44.3065 38.5714V32.1429C44.3065 31.8587 44.1926 31.5862 43.9899 31.3852C43.7873 31.1843 43.5124 31.0714 43.2258 31.0714H42.1452V28.9286H39.9839V31.0714H38.9032C38.6166 31.0714 38.3418 31.1843 38.1391 31.3852C37.9364 31.5862 37.8226 31.8587 37.8226 32.1429V38.5714C37.8226 38.8556 37.9364 39.1281 38.1391 39.329C38.3418 39.53 38.6166 39.6429 38.9032 39.6429ZM39.9839 33.2143H42.1452V37.5H39.9839V33.2143Z" fill="#90A1AE"/>
<path d="M49.7097 36.4286H50.7903V43.9286H52.9516V36.4286H54.0323C54.3189 36.4286 54.5937 36.3157 54.7964 36.1148C54.9991 35.9138 55.1129 35.6413 55.1129 35.3571V28.9286C55.1129 28.6444 54.9991 28.3719 54.7964 28.171C54.5937 27.97 54.3189 27.8571 54.0323 27.8571H52.9516V25.7143H50.7903V27.8571H49.7097C49.4231 27.8571 49.1482 27.97 48.9455 28.171C48.7429 28.3719 48.629 28.6444 48.629 28.9286V35.3571C48.629 35.6413 48.7429 35.9138 48.9455 36.1148C49.1482 36.3157 49.4231 36.4286 49.7097 36.4286ZM50.7903 30H52.9516V34.2857H50.7903V30Z" fill="#90A1AE"/>
</svg>

<svg width="67" height="60" fill="none" xmlns="http://www.w3.org/2000/svg"><path d="M61.597 0H5.403a5.433 5.433 0 0 0-3.819 1.571A5.34 5.34 0 0 0 0 5.357v49.286a5.34 5.34 0 0 0 1.584 3.786A5.433 5.433 0 0 0 5.404 60h56.193a5.433 5.433 0 0 0 3.818-1.571A5.34 5.34 0 0 0 67 54.643V5.357a5.34 5.34 0 0 0-1.585-3.786A5.433 5.433 0 0 0 61.597 0ZM5.403 2.143h56.194c.86 0 1.684.339 2.292.941a3.2 3.2 0 0 1 .95 2.273v7.5H2.16v-7.5a3.2 3.2 0 0 1 .95-2.273 3.256 3.256 0 0 1 2.292-.941Zm-3.242 15V15h8.645v2.143H2.162ZM12.968 15h8.645v2.143h-8.645V15Zm10.806 0h8.645v2.143h-8.645V15Zm10.807 0h8.645v1.071c0 .285-.114.557-.317.758a1.085 1.085 0 0 1-.764.314h-7.564V15Zm27.016 42.857H5.403c-.86 0-1.684-.338-2.292-.941a3.2 3.2 0 0 1-.95-2.273V19.286h39.984c.86 0 1.685-.339 2.293-.942a3.2 3.2 0 0 0 .95-2.273V15h19.45v39.643a3.2 3.2 0 0 1-.949 2.273 3.256 3.256 0 0 1-2.292.941Z" fill="#90A1AE"/><path d="M50.79 10.714c.642 0 1.268-.188 1.801-.541a3.22 3.22 0 0 0 1.194-1.443 3.189 3.189 0 0 0-.702-3.503 3.268 3.268 0 0 0-3.533-.697 3.236 3.236 0 0 0-1.455 1.184 3.194 3.194 0 0 0 .403 4.059 3.256 3.256 0 0 0 2.292.941Zm0-4.285a1.087 1.087 0 0 1 .999.661 1.063 1.063 0 0 1-.235 1.168A1.084 1.084 0 0 1 49.71 7.5c0-.284.114-.557.316-.758.203-.2.478-.313.764-.313ZM59.435 10.714c.642 0 1.268-.188 1.802-.541A3.22 3.22 0 0 0 62.43 8.73a3.189 3.189 0 0 0-.703-3.503 3.268 3.268 0 0 0-3.533-.697 3.236 3.236 0 0 0-1.455 1.184 3.195 3.195 0 0 0 .403 4.059 3.256 3.256 0 0 0 2.292.941Zm0-4.285a1.088 1.088 0 0 1 .999.661 1.063 1.063 0 0 1-.234 1.168 1.083 1.083 0 0 1-1.178.232 1.079 1.079 0 0 1-.667-.99c0-.284.114-.557.316-.758.203-.2.478-.313.764-.313ZM61.597 21.429H5.403c-.286 0-.561.113-.764.313-.203.201-.316.474-.316.758v32.143c0 .284.113.556.316.758.203.2.478.313.764.313h56.194c.286 0 .561-.113.764-.313.203-.202.316-.474.316-.758V22.5c0-.284-.113-.557-.316-.758a1.086 1.086 0 0 0-.764-.313Zm-1.08 32.142H6.483v-30h54.032v30Z" fill="#90A1AE"/><path d="M9.726 51.429h48.629v-2.143H10.807V25.714H8.645v24.643c0 .284.114.557.317.758.202.2.477.314.764.314Z" fill="#90A1AE"/><path d="M17.29 39.643h1.081v2.143h2.161v-2.143h1.08c.288 0 .562-.113.765-.314.203-.2.317-.473.317-.758v-6.428c0-.284-.114-.557-.317-.758a1.085 1.085 0 0 0-.764-.314h-1.08V28.93H18.37v2.142h-1.08c-.287 0-.562.113-.765.314a1.067 1.067 0 0 0-.316.758v6.428c0 .285.113.557.316.758.203.201.478.314.764.314Zm1.081-6.429h2.161V37.5h-2.161v-4.286ZM28.097 42.857h1.08v4.286h2.162v-4.286h1.08c.287 0 .562-.113.765-.314.202-.2.316-.473.316-.757v-6.429c0-.284-.114-.556-.316-.758a1.086 1.086 0 0 0-.765-.313h-1.08v-2.143h-2.162v2.143h-1.08c-.287 0-.562.113-.764.313a1.067 1.067 0 0 0-.317.758v6.429c0 .284.114.556.317.757.202.201.477.314.764.314Zm1.08-6.428h2.162v4.285h-2.162V36.43ZM38.903 39.643h1.08v2.143h2.162v-2.143h1.08c.287 0 .562-.113.765-.314.203-.2.316-.473.316-.758v-6.428c0-.284-.113-.557-.316-.758a1.085 1.085 0 0 0-.764-.314h-1.08V28.93h-2.162v2.142h-1.08c-.287 0-.562.113-.765.314a1.067 1.067 0 0 0-.316.758v6.428c0 .285.113.557.316.758.203.201.478.314.764.314Zm1.08-6.429h2.162V37.5h-2.161v-4.286ZM49.71 36.429h1.08v7.5h2.162v-7.5h1.08c.287 0 .562-.113.764-.314.203-.201.317-.474.317-.758V28.93c0-.285-.114-.557-.317-.758a1.085 1.085 0 0 0-.764-.314h-1.08v-2.143H50.79v2.143h-1.08c-.287 0-.562.113-.764.314-.203.2-.317.473-.317.758v6.428c0 .284.114.557.317.758.202.2.477.314.764.314ZM50.79 30h2.162v4.286H50.79V30Z" fill="#90A1AE"/></svg>
